public/images/logo-large.svg

<svg fill="none" height="80" viewBox="0 0 284 80" width="284" xmlns="http://www.w3.org/2000/svg" xmlns:xlink="http://www.w3.org/1999/xlink"><filter id="a" color-interpolation-filters="sRGB" filterUnits="userSpaceOnUse" height="80" width="80" x="0" y="0"><feFlood flood-opacity="0" result="BackgroundImageFix"/><feColorMatrix in="SourceAlpha" result="hardAlpha" type="matrix" values="0 0 0 0 0 0 0 0 0 0 0 0 0 0 0 0 0 0 127 0"/><feOffset dy="4"/><feGaussianBlur stdDeviation="8"/><feComposite in2="hardAlpha" operator="out"/><feColorMatrix type="matrix" values="0 0 0 0 1 0 0 0 0 0.619006 0 0 0 0 0.348077 0 0 0 0.2 0"/><feBlend in2="BackgroundImageFix" mode="normal" result="effect1_dropShadow_13460_64244"/><feBlend in="SourceGraphic" in2="effect1_dropShadow_13460_64244" mode="normal" result="shape"/></filter><g filter="url(#a)"><rect fill="#ff8442" height="48" rx="12" width="48" x="16" y="12"/><path d="m46.3082 30.1154h-.6429c-.8571 0-1.7143.0769-2.5714.2692-.8572.2308-1.4286.6154-1.6429 1.1539-.0714.1538-.0714.3077-.0714.4615 0 .5385.4286 1 1.0714 1.4231.5.3077 1.1429.6154 1.7143.9231 1 .6153 3.5 1.0384 4.5714 1.5769 1.1429.5384 2.1429 1.1154 3.2143 1.6923 1.0715.6154 1.5715 1.3846 1.9286 2.1538.2857.6154.4286 1.1923.4286 1.8077 0 .3846-.0715.8077-.2143 1.1923-.1429.9616-.9286 1.7693-1.5 2.577-.4286.5-1.0714.923-1.5714 1.423-.1429.1923-.5.3462-.7858.5385-.7142.4231-1.5.8077-2.4285 1.1154-.0715.0384-.2143.0769-.3572.1154-2.7143.6923-5.5 1.1923-9.4285 1.3846-.8572.0384-2.2143.0769-3.2143.0769h-.4286c-1.7857 0-2.0225-.0769-3.3796-.0769-.5 0-1.5714-.2693-2-.4231-1-.5-1.1836-.6336-1.5-1-.5979-.6923-1.5-1.5385-1.5-2.5 0-1.2692 0-.8462 0-2 0-.5769.9021-2.0492.9021-2.0492s.0979-.4508.5979-.9508l1-.5s1.1428-.5 1.5-.5c0 0 .5225.0385 1.6653.0385.9286 0 1.8572-.0385 2.5714-.1539 1.7143-.2692 3.2858-.6923 4.4286-1.4615.5714-.3846.8572-.8462.8572-1.2693 0-.4615-.3572-.923-1-1.2307-.5-.3077-.9286-.6154-1.4286-.9231-.7857-.4231-2-.8077-2.9286-1.1538-.7143-.2308-1.3571-.5-1.9286-.7693-.8571-.4231-1.7142-.8846-2.5-1.3461-1.0714-.6539-1.7142-1.3077-2.5-2.2308-.5-.6538-.6428-1.0769-.7142-1.7692v-.2308c0-1.8462 2.2142-2.9615 4.2142-3.7692 2.5715-1.077 5.7143-1.4231 9.9286-1.6539 1-.0769 2.0714-.0769 3.0714-.0769 2.9286 0 6.6429 0 8.8572.8077.7857.6923 1.1428.7692 1.2857 1.1923l.3571 1.0769c0 .4231 0 .7308.0715 1.4231.0714.3846.0714.5769.0714.9615 0 .6923-.0714.778-.5 1.0385l-.5.5c-1 .5-2 1-2.5 1-.5714 0-2.5.1154-4.5714.1154z" fill="#fff"/></g><g fill="#333"><path d="m207.966 47.745c-1.67 0-3.145-.365-4.425-1.095-1.28-.74-2.285-1.725-3.015-2.955-.72-1.23-1.08-2.58-1.08-4.05 0-1.07.205-2.09.615-3.06.42-.98 1.01-1.845 1.77-2.595.76-.76 1.66-1.355 2.7-1.785 1.04-.44 2.185-.66 3.435-.66 1.67 0 3.145.37 4.425 1.11 1.28.73 2.28 1.71 3 2.94s1.08 2.58 1.08 4.05c0 1.07-.205 2.095-.615 3.075-.41.97-.995 1.83-1.755 2.58s-1.66 1.345-2.7 1.785-2.185.66-3.435.66zm0-4.23c.7 0 1.33-.155 1.89-.465.56-.32 1-.77 1.32-1.35s.48-1.265.48-2.055c0-.8-.16-1.485-.48-2.055-.31-.58-.745-1.025-1.305-1.335-.56-.32-1.195-.48-1.905-.48s-1.345.16-1.905.48c-.56.31-1 .755-1.32 1.335-.32.57-.48 1.255-.48 2.055 0 .79.16 1.475.48 2.055.33.58.775 1.03 1.335 1.35.56.31 1.19.465 1.89.465z"/><path d="m187.97 47.7451c-1.45 0-2.75-.335-3.9-1.005-1.15-.68-2.055-1.625-2.715-2.835-.66-1.22-.99-2.64-.99-4.26 0-1.15.19-2.215.57-3.195s.91-1.835 1.59-2.565c.69-.74 1.505-1.315 2.445-1.725s1.97-.615 3.09-.615c1.17 0 2.225.23 3.165.69s1.76 1.145 2.46 2.055l-1.125 1.125v-9.72h4.92v21.6h-4.245v-3.975l.675 1.11c-.44.98-1.175 1.78-2.205 2.4-1.03.61-2.275.915-3.735.915zm.915-4.23c.7 0 1.33-.155 1.89-.465.56-.32 1-.77 1.32-1.35s.48-1.265.48-2.055c0-.8-.16-1.485-.48-2.055-.31-.58-.745-1.025-1.305-1.335-.56-.32-1.195-.48-1.905-.48s-1.345.16-1.905.48c-.56.31-1 .755-1.32 1.335-.32.57-.48 1.255-.48 2.055 0 .79.16 1.475.48 2.055.33.58.775 1.03 1.335 1.35.56.31 1.19.465 1.89.465z"/><path d="m170.105 40.965v-4.305h8.82v4.305z"/><path d="m160.129 47.745c-1.67 0-3.145-.365-4.425-1.095-1.28-.74-2.285-1.725-3.015-2.955-.72-1.23-1.08-2.58-1.08-4.05 0-1.07.205-2.09.615-3.06.42-.98 1.01-1.845 1.77-2.595.76-.76 1.66-1.355 2.7-1.785 1.04-.44 2.185-.66 3.435-.66 1.67 0 3.145.37 4.425 1.11 1.28.73 2.28 1.71 3 2.94s1.08 2.58 1.08 4.05c0 1.07-.205 2.095-.615 3.075-.41.97-.995 1.83-1.755 2.58s-1.66 1.345-2.7 1.785-2.185.66-3.435.66zm0-4.23c.7 0 1.33-.155 1.89-.465.56-.32 1-.77 1.32-1.35s.48-1.265.48-2.055c0-.8-.16-1.485-.48-2.055-.31-.58-.745-1.025-1.305-1.335-.56-.32-1.195-.48-1.905-.48s-1.345.16-1.905.48c-.56.31-1 .755-1.32 1.335-.32.57-.48 1.255-.48 2.055 0 .79.16 1.475.48 2.055.33.58.775 1.03 1.335 1.35.56.31 1.19.465 1.89.465z"/><path d="m147.012 47.745c-1.7 0-3.035-.475-4.005-1.425-.97-.96-1.455-2.39-1.455-4.29v-14.415h4.92v4.38h3.585v3.9h-3.585v5.28c0 .82.18 1.395.54 1.725s.825.495 1.395.495c.31 0 .615-.035.915-.105.31-.08.595-.195.855-.345l.63 3.855c-.47.26-1.035.48-1.695.66-.66.19-1.36.285-2.1.285zm-8.43-11.85v-3.9h3.42v3.9z"/><path d="m121.572 47.7451c-1.45 0-2.75-.335-3.9-1.005-1.15-.68-2.055-1.625-2.715-2.835-.66-1.22-.99-2.64-.99-4.26 0-1.15.19-2.215.57-3.195s.91-1.835 1.59-2.565c.69-.74 1.505-1.315 2.445-1.725s1.97-.615 3.09-.615c1.17 0 2.225.23 3.165.69s1.76 1.145 2.46 2.055l-1.125 1.125v-9.72h4.92v21.6h-4.245v-3.975l.675 1.11c-.44.98-1.175 1.78-2.205 2.4-1.03.61-2.275.915-3.735.915zm.915-4.23c.7 0 1.33-.155 1.89-.465.56-.32 1-.77 1.32-1.35s.48-1.265.48-2.055c0-.8-.16-1.485-.48-2.055-.31-.58-.745-1.025-1.305-1.335-.56-.32-1.195-.48-1.905-.48s-1.345.16-1.905.48c-.56.31-1 .755-1.32 1.335-.32.57-.48 1.255-.48 2.055 0 .79.16 1.475.48 2.055.33.58.775 1.03 1.335 1.35.56.31 1.19.465 1.89.465z"/><path d="m107.059 47.295v-15.3h4.92v15.3zm2.46-17.565c-.79 0-1.48-.245-2.07-.735-.58-.5-.87-1.165-.87-1.995 0-.85.29-1.52.87-2.01.59-.49 1.28-.735 2.07-.735.8 0 1.49.245 2.07.735s.87 1.16.87 2.01c0 .83-.29 1.495-.87 1.995-.58.49-1.27.735-2.07.735z"/><path d="m98.9351 47.2951v-21.6h4.9199v21.6z"/><path d="m88.445 47.745c-1.59 0-3.135-.235-4.635-.705s-2.77-1.15-3.81-2.04l2.34-3.72c.44.47 1 .875 1.68 1.215s1.405.605 2.175.795c.78.18 1.535.27 2.265.27 1.03 0 1.865-.17 2.505-.51.65-.35.975-.855.975-1.515 0-.54-.235-.995-.705-1.365-.46-.37-1.325-.725-2.595-1.065l-1.8-.51c-2.16-.6-3.715-1.42-4.665-2.46s-1.425-2.29-1.425-3.75c0-.94.2-1.805.6-2.595.4-.8.96-1.49 1.68-2.07.72-.59 1.565-1.045 2.535-1.365.98-.33 2.045-.495 3.195-.495 1.59 0 3.065.235 4.425.705 1.37.46 2.47 1.09 3.3 1.89l-2.43 3.6c-.38-.4-.85-.75-1.41-1.05s-1.17-.535-1.83-.705-1.325-.255-1.995-.255c-.66 0-1.235.085-1.725.255s-.875.415-1.155.735c-.27.31-.405.68-.405 1.11 0 .35.1.645.3.885.21.23.555.45 1.035.66.49.21 1.15.44 1.98.69l1.83.54c2.15.63 3.705 1.42 4.665 2.37s1.44 2.185 1.44 3.705c0 1.33-.34 2.505-1.02 3.525-.68 1.01-1.645 1.8-2.895 2.37-1.24.57-2.715.855-4.425.855z"/></g></svg>

<svg width="284" height="80" viewBox="0 0 284 80" fill="none" xmlns="http://www.w3.org/2000/svg">
<g filter="url(#filter0_d_13460_64244)">
<rect x="16" y="12" width="48" height="48" rx="12" fill="#FF8442"/>
<path d="M46.3082 30.1154H45.6653C44.8082 30.1154 43.951 30.1923 43.0939 30.3846C42.2367 30.6154 41.6653 31 41.451 31.5385C41.3796 31.6923 41.3796 31.8462 41.3796 32C41.3796 32.5385 41.8082 33 42.451 33.4231C42.951 33.7308 43.5939 34.0385 44.1653 34.3462C45.1653 34.9615 47.6653 35.3846 48.7367 35.9231C49.8796 36.4615 50.8796 37.0385 51.951 37.6154C53.0225 38.2308 53.5225 39 53.8796 39.7692C54.1653 40.3846 54.3082 40.9615 54.3082 41.5769C54.3082 41.9615 54.2367 42.3846 54.0939 42.7692C53.951 43.7308 53.1653 44.5385 52.5939 45.3462C52.1653 45.8462 51.5225 46.2692 51.0225 46.7692C50.8796 46.9615 50.5225 47.1154 50.2367 47.3077C49.5225 47.7308 48.7367 48.1154 47.8082 48.4231C47.7367 48.4615 47.5939 48.5 47.451 48.5385C44.7367 49.2308 41.951 49.7308 38.0225 49.9231C37.1653 49.9615 35.8082 50 34.8082 50H34.3796C32.5939 50 32.3571 49.9231 31 49.9231C30.5 49.9231 29.4286 49.6538 29 49.5C28 49 27.8164 48.8664 27.5 48.5C26.9021 47.8077 26 46.9615 26 46C26 44.7308 26 45.1538 26 44C26 43.4231 26.9021 41.9508 26.9021 41.9508C26.9021 41.9508 27 41.5 27.5 41L28.5 40.5C28.5 40.5 29.6428 40 30 40C30 40 30.5225 40.0385 31.6653 40.0385C32.5939 40.0385 33.5225 40 34.2367 39.8846C35.951 39.6154 37.5225 39.1923 38.6653 38.4231C39.2367 38.0385 39.5225 37.5769 39.5225 37.1538C39.5225 36.6923 39.1653 36.2308 38.5225 35.9231C38.0225 35.6154 37.5939 35.3077 37.0939 35C36.3082 34.5769 35.0939 34.1923 34.1653 33.8462C33.451 33.6154 32.8082 33.3462 32.2367 33.0769C31.3796 32.6538 30.5225 32.1923 29.7367 31.7308C28.6653 31.0769 28.0225 30.4231 27.2367 29.5C26.7367 28.8462 26.5939 28.4231 26.5225 27.7308V27.5C26.5225 25.6538 28.7367 24.5385 30.7367 23.7308C33.3082 22.6538 36.451 22.3077 40.6653 22.0769C41.6653 22 42.7367 22 43.7367 22C46.6653 22 50.3796 22 52.5939 22.8077C53.3796 23.5 53.7367 23.5769 53.8796 24L54.2367 25.0769C54.2367 25.5 54.2367 25.8077 54.3082 26.5C54.3796 26.8846 54.3796 27.0769 54.3796 27.4615C54.3796 28.1538 54.3082 28.2395 53.8796 28.5L53.3796 29C52.3796 29.5 51.3796 30 50.8796 30C50.3082 30 48.3796 30.1154 46.3082 30.1154Z" fill="white"/>
</g>
<path d="M207.966 47.745C206.296 47.745 204.821 47.38 203.541 46.65C202.261 45.91 201.256 44.925 200.526 43.695C199.806 42.465 199.446 41.115 199.446 39.645C199.446 38.575 199.651 37.555 200.061 36.585C200.481 35.605 201.071 34.74 201.831 33.99C202.591 33.23 203.491 32.635 204.531 32.205C205.571 31.765 206.716 31.545 207.966 31.545C209.636 31.545 211.111 31.915 212.391 32.655C213.671 33.385 214.671 34.365 215.391 35.595C216.111 36.825 216.471 38.175 216.471 39.645C216.471 40.715 216.266 41.74 215.856 42.72C215.446 43.69 214.861 44.55 214.101 45.3C213.341 46.05 212.441 46.645 211.401 47.085C210.361 47.525 209.216 47.745 207.966 47.745ZM207.966 43.515C208.666 43.515 209.296 43.36 209.856 43.05C210.416 42.73 210.856 42.28 211.176 41.7C211.496 41.12 211.656 40.435 211.656 39.645C211.656 38.845 211.496 38.16 211.176 37.59C210.866 37.01 210.431 36.565 209.871 36.255C209.311 35.935 208.676 35.775 207.966 35.775C207.256 35.775 206.621 35.935 206.061 36.255C205.501 36.565 205.061 37.01 204.741 37.59C204.421 38.16 204.261 38.845 204.261 39.645C204.261 40.435 204.421 41.12 204.741 41.7C205.071 42.28 205.516 42.73 206.076 43.05C206.636 43.36 207.266 43.515 207.966 43.515Z" fill="#333333"/>
<path d="M187.97 47.7451C186.52 47.7451 185.22 47.4101 184.07 46.7401C182.92 46.0601 182.015 45.1151 181.355 43.9051C180.695 42.6851 180.365 41.2651 180.365 39.6451C180.365 38.4951 180.555 37.4301 180.935 36.4501C181.315 35.4701 181.845 34.6151 182.525 33.8851C183.215 33.1451 184.03 32.5701 184.97 32.1601C185.91 31.7501 186.94 31.5451 188.06 31.5451C189.23 31.5451 190.285 31.7751 191.225 32.2351C192.165 32.6951 192.985 33.3801 193.685 34.2901L192.56 35.4151V25.6951H197.48V47.2951H193.235V43.3201L193.91 44.4301C193.47 45.4101 192.735 46.2101 191.705 46.8301C190.675 47.4401 189.43 47.7451 187.97 47.7451ZM188.885 43.5151C189.585 43.5151 190.215 43.3601 190.775 43.0501C191.335 42.7301 191.775 42.2801 192.095 41.7001C192.415 41.1201 192.575 40.4351 192.575 39.6451C192.575 38.8451 192.415 38.1601 192.095 37.5901C191.785 37.0101 191.35 36.5651 190.79 36.2551C190.23 35.9351 189.595 35.7751 188.885 35.7751C188.175 35.7751 187.54 35.9351 186.98 36.2551C186.42 36.5651 185.98 37.0101 185.66 37.5901C185.34 38.1601 185.18 38.8451 185.18 39.6451C185.18 40.4351 185.34 41.1201 185.66 41.7001C185.99 42.2801 186.435 42.7301 186.995 43.0501C187.555 43.3601 188.185 43.5151 188.885 43.5151Z" fill="#333333"/>
<path d="M170.105 40.965V36.66H178.925V40.965H170.105Z" fill="#333333"/>
<path d="M160.129 47.745C158.459 47.745 156.984 47.38 155.704 46.65C154.424 45.91 153.419 44.925 152.689 43.695C151.969 42.465 151.609 41.115 151.609 39.645C151.609 38.575 151.814 37.555 152.224 36.585C152.644 35.605 153.234 34.74 153.994 33.99C154.754 33.23 155.654 32.635 156.694 32.205C157.734 31.765 158.879 31.545 160.129 31.545C161.799 31.545 163.274 31.915 164.554 32.655C165.834 33.385 166.834 34.365 167.554 35.595C168.274 36.825 168.634 38.175 168.634 39.645C168.634 40.715 168.429 41.74 168.019 42.72C167.609 43.69 167.024 44.55 166.264 45.3C165.504 46.05 164.604 46.645 163.564 47.085C162.524 47.525 161.379 47.745 160.129 47.745ZM160.129 43.515C160.829 43.515 161.459 43.36 162.019 43.05C162.579 42.73 163.019 42.28 163.339 41.7C163.659 41.12 163.819 40.435 163.819 39.645C163.819 38.845 163.659 38.16 163.339 37.59C163.029 37.01 162.594 36.565 162.034 36.255C161.474 35.935 160.839 35.775 160.129 35.775C159.419 35.775 158.784 35.935 158.224 36.255C157.664 36.565 157.224 37.01 156.904 37.59C156.584 38.16 156.424 38.845 156.424 39.645C156.424 40.435 156.584 41.12 156.904 41.7C157.234 42.28 157.679 42.73 158.239 43.05C158.799 43.36 159.429 43.515 160.129 43.515Z" fill="#333333"/>
<path d="M147.012 47.745C145.312 47.745 143.977 47.27 143.007 46.32C142.037 45.36 141.552 43.93 141.552 42.03V27.615H146.472V31.995H150.057V35.895H146.472V41.175C146.472 41.995 146.652 42.57 147.012 42.9C147.372 43.23 147.837 43.395 148.407 43.395C148.717 43.395 149.022 43.36 149.322 43.29C149.632 43.21 149.917 43.095 150.177 42.945L150.807 46.8C150.337 47.06 149.772 47.28 149.112 47.46C148.452 47.65 147.752 47.745 147.012 47.745ZM138.582 35.895V31.995H142.002V35.895H138.582Z" fill="#333333"/>
<path d="M121.572 47.7451C120.122 47.7451 118.822 47.4101 117.672 46.7401C116.522 46.0601 115.617 45.1151 114.957 43.9051C114.297 42.6851 113.967 41.2651 113.967 39.6451C113.967 38.4951 114.157 37.4301 114.537 36.4501C114.917 35.4701 115.447 34.6151 116.127 33.8851C116.817 33.1451 117.632 32.5701 118.572 32.1601C119.512 31.7501 120.542 31.5451 121.662 31.5451C122.832 31.5451 123.887 31.7751 124.827 32.2351C125.767 32.6951 126.587 33.3801 127.287 34.2901L126.162 35.4151V25.6951H131.082V47.2951H126.837V43.3201L127.512 44.4301C127.072 45.4101 126.337 46.2101 125.307 46.8301C124.277 47.4401 123.032 47.7451 121.572 47.7451ZM122.487 43.5151C123.187 43.5151 123.817 43.3601 124.377 43.0501C124.937 42.7301 125.377 42.2801 125.697 41.7001C126.017 41.1201 126.177 40.4351 126.177 39.6451C126.177 38.8451 126.017 38.1601 125.697 37.5901C125.387 37.0101 124.952 36.5651 124.392 36.2551C123.832 35.9351 123.197 35.7751 122.487 35.7751C121.777 35.7751 121.142 35.9351 120.582 36.2551C120.022 36.5651 119.582 37.0101 119.262 37.5901C118.942 38.1601 118.782 38.8451 118.782 39.6451C118.782 40.4351 118.942 41.1201 119.262 41.7001C119.592 42.2801 120.037 42.7301 120.597 43.0501C121.157 43.3601 121.787 43.5151 122.487 43.5151Z" fill="#333333"/>
<path d="M107.059 47.295V31.995H111.979V47.295H107.059ZM109.519 29.73C108.729 29.73 108.039 29.485 107.449 28.995C106.869 28.495 106.579 27.83 106.579 27C106.579 26.15 106.869 25.48 107.449 24.99C108.039 24.5 108.729 24.255 109.519 24.255C110.319 24.255 111.009 24.5 111.589 24.99C112.169 25.48 112.459 26.15 112.459 27C112.459 27.83 112.169 28.495 111.589 28.995C111.009 29.485 110.319 29.73 109.519 29.73Z" fill="#333333"/>
<path d="M98.9351 47.2951V25.6951H103.855V47.2951H98.9351Z" fill="#333333"/>
<path d="M88.445 47.745C86.855 47.745 85.31 47.51 83.81 47.04C82.31 46.57 81.04 45.89 80 45L82.34 41.28C82.78 41.75 83.34 42.155 84.02 42.495C84.7 42.835 85.425 43.1 86.195 43.29C86.975 43.47 87.73 43.56 88.46 43.56C89.49 43.56 90.325 43.39 90.965 43.05C91.615 42.7 91.94 42.195 91.94 41.535C91.94 40.995 91.705 40.54 91.235 40.17C90.775 39.8 89.91 39.445 88.64 39.105L86.84 38.595C84.68 37.995 83.125 37.175 82.175 36.135C81.225 35.095 80.75 33.845 80.75 32.385C80.75 31.445 80.95 30.58 81.35 29.79C81.75 28.99 82.31 28.3 83.03 27.72C83.75 27.13 84.595 26.675 85.565 26.355C86.545 26.025 87.61 25.86 88.76 25.86C90.35 25.86 91.825 26.095 93.185 26.565C94.555 27.025 95.655 27.655 96.485 28.455L94.055 32.055C93.675 31.655 93.205 31.305 92.645 31.005C92.085 30.705 91.475 30.47 90.815 30.3C90.155 30.13 89.49 30.045 88.82 30.045C88.16 30.045 87.585 30.13 87.095 30.3C86.605 30.47 86.22 30.715 85.94 31.035C85.67 31.345 85.535 31.715 85.535 32.145C85.535 32.495 85.635 32.79 85.835 33.03C86.045 33.26 86.39 33.48 86.87 33.69C87.36 33.9 88.02 34.13 88.85 34.38L90.68 34.92C92.83 35.55 94.385 36.34 95.345 37.29C96.305 38.24 96.785 39.475 96.785 40.995C96.785 42.325 96.445 43.5 95.765 44.52C95.085 45.53 94.12 46.32 92.87 46.89C91.63 47.46 90.155 47.745 88.445 47.745Z" fill="#333333"/>
<defs>
<filter id="filter0_d_13460_64244" x="0" y="0" width="80" height="80" filterUnits="userSpaceOnUse" color-interpolation-filters="sRGB">
<feFlood flood-opacity="0" result="BackgroundImageFix"/>
<feColorMatrix in="SourceAlpha" type="matrix" values="0 0 0 0 0 0 0 0 0 0 0 0 0 0 0 0 0 0 127 0" result="hardAlpha"/>
<feOffset dy="4"/>
<feGaussianBlur stdDeviation="8"/>
<feComposite in2="hardAlpha" operator="out"/>
<feColorMatrix type="matrix" values="0 0 0 0 1 0 0 0 0 0.619006 0 0 0 0 0.348077 0 0 0 0.2 0"/>
<feBlend mode="normal" in2="BackgroundImageFix" result="effect1_dropShadow_13460_64244"/>
<feBlend mode="normal" in="SourceGraphic" in2="effect1_dropShadow_13460_64244" result="shape"/>
</filter>
</defs>
</svg>
